X: 21
T: Mrs Bakers Fancy
%R: reel
B: "Twenty Four Favourite Dances for the Year 1779", Thomas Straight, ed. p.11 #1
F: http://www.vwml.org/browse/browse-collections-dance-tune-books/browse-straights1779
Z: 2014 John Chambers <jc:trillian.mit.edu>
N: Rhythms at the strain boundaries are all wrong; the pickups and final notes have all been cut in half.
M: 2/4
L: 1/16
K: D
AB/c/ |\
dAFD dAFD | dAFD [E4A,4] |\
DA,EA, FA,GA, | AGFE D2 :|
|: d2 |\
cAdA eAfA | gAfA eAdA |\
cAdA eAfA | edcB A2 :|
%%begintext align
%% Cast off 2d Cu :|. lead up to the top and
%% cast off :|. hands four at bottom Right
%% and left at top
%%endtext

%%sep 1 1 500
%%sep 1 1 500
